X: 32579
T: Planxty Irwin
R: waltz
M: 3/4
K: Gmajor
d2|:g4f2|e3fg2|d4c2|B3AG2|
c3BA2|B2c2d2|D2F2G2|A4d2|
g4f2|e3fg2|d4c2|B3AG2|
c3BA2|B2c2d2|G4F2|G4d2:|
|:g3fg2|g3fg2|a3ba2|a2f2d2|
b3ag2|a2g2f2|e2d2^c2|d2e2f2|
g4f2|e3fg2|d4c2|B3AG2|
c3BA2|B2c2d2|G4F2|1 G4d2:|2 G4||

